X: 1
T: Nobody's Jig
O: 1721
R: jig
B: Barnes v.1 p.88
Z: 2014 John Chambers <jc:trillian.mit.edu>
M: C|
L: 1/8
K: G
g2 |\
"D"f2d2 d2ef | "G"g2G2 G2g2 | "D"f2d2 defd | "G"g6 ag |\
"D"f2d2 d2ef | "G"g2d2 "C"d2c2 | "G"B4 "D7"A4 | "G"G6 :|
|: g2 |\
"D"f2 a4 gf | "G"g2 b4 ag | "D"f2 a4 gf | "G"g2 b4 ag |\
"D"fga2 d2ef | "G"g2d2- "C"d2c2 | "G"B4 "D7"A4 | "G"G6 :|
